icons/4_Outdated/Discord v1.svg

<svg xmlns="http://www.w3.org/2000/svg" viewBox="0 0 1024 1024">
   <circle cx="512" cy="512" r="512" style="fill:#7289da"/>
   <path d="M697 267c31.6 0 57.1 25.6 58.6 55.7V807l-60.2-51.1-33.1-30.1-36.1-31.4 15.1 49.6H325.5c-31.5 0-57.1-24-57.1-55.7V322.8c0-30.1 25.6-55.7 57.3-55.7h371.2l.1-.1zM559.3 394.9h-.7l-4.5 4.5c46.6 13.5 69.2 34.6 69.2 34.6-30.1-15-57.1-22.5-84.2-25.6-19.6-3-39.1-1.4-55.7 0h-4.5c-10.6 0-33.1 4.5-63.2 16.5-10.5 4.6-16.5 7.6-16.5 7.6s22.5-22.5 72.2-34.6l-3-3s-37.6-1.4-78.2 28.6c0 0-40.6 70.7-40.6 157.9 0 0 22.5 39.1 84.2 40.6 0 0 9-12 18.1-22.5-34.6-10.5-48.1-31.6-48.1-31.6s3 1.5 7.5 4.5h1.3c.7 0 1 .3 1.3.7v.1c.4.4.7.7 1.3.7 7.4 3.1 14.8 6.1 20.9 9 10.5 4.5 24 9.1 40.5 12.1 20.9 3 44.9 4.5 72.2 0 13.5-3 27-6 40.5-12 8.8-4.5 19.6-9 31.4-16.6 0 0-13.5 21.1-49.6 31.6 7.4 10.5 17.9 22.5 17.9 22.5 61.7-1.3 85.7-40.5 87.1-38.8 0-87.1-40.8-157.9-40.8-157.9-36.8-27.3-71.2-28.3-77.3-28.3l1.3-.6zm3.8 99.3c15.8 0 28.6 13.5 28.6 30 0 16.6-12.8 30.1-28.6 30.1s-28.6-13.5-28.6-30c.1-16.6 12.9-30.1 28.6-30.1zm-102.2 0c15.7 0 28.5 13.5 28.5 30 0 16.6-12.8 30.1-28.6 30.1-15.7 0-28.6-13.5-28.6-30 .1-16.6 12.9-30.1 28.7-30.1z" style="fill:#fff"/>
</svg>

<svg width="1024" height="1024" viewBox="0 0 1024 1024" fill="none" xmlns="http://www.w3.org/2000/svg">
<g clip-path="url(#clip0_3_527)">
<path d="M512 1024C794.77 1024 1024 794.77 1024 512C1024 229.23 794.77 0 512 0C229.23 0 0 229.23 0 512C0 794.77 229.23 1024 512 1024Z" fill="#728DBE"/>
<path d="M697 267C728.6 267 754.1 292.6 755.6 322.7V807L695.4 755.9L662.3 725.8L626.2 694.4L641.3 744H325.5C294 744 268.4 720 268.4 688.3V322.8C268.4 292.7 294 267.1 325.7 267.1H696.9L697 267ZM559.3 394.9H558.6L554.1 399.4C600.7 412.9 623.3 434 623.3 434C593.2 419 566.2 411.5 539.1 408.4C519.5 405.4 500 407 483.4 408.4H478.9C468.3 408.4 445.8 412.9 415.7 424.9C405.2 429.5 399.2 432.5 399.2 432.5C399.2 432.5 421.7 410 471.4 397.9L468.4 394.9C468.4 394.9 430.8 393.5 390.2 423.5C390.2 423.5 349.6 494.2 349.6 581.4C349.6 581.4 372.1 620.5 433.8 622C433.8 622 442.8 610 451.9 599.5C417.3 589 403.8 567.9 403.8 567.9C403.8 567.9 406.8 569.4 411.3 572.4H412.6C413.3 572.4 413.6 572.7 413.9 573.1V573.2C414.3 573.6 414.6 573.9 415.2 573.9C422.6 577 430 580 436.1 582.9C446.6 587.4 460.1 592 476.6 595C497.5 598 521.5 599.5 548.8 595C562.3 592 575.8 589 589.3 583C598.1 578.5 608.9 574 620.7 566.4C620.7 566.4 607.2 587.5 571.1 598C578.5 608.5 589 620.5 589 620.5C650.7 619.2 674.7 580 676.1 581.7C676.1 494.6 635.3 423.8 635.3 423.8C598.5 396.5 564.1 395.5 558 395.5L559.3 394.9ZM563.1 494.2C578.9 494.2 591.7 507.7 591.7 524.2C591.7 540.8 578.9 554.3 563.1 554.3C547.3 554.3 534.5 540.8 534.5 524.3C534.6 507.7 547.4 494.2 563.1 494.2ZM460.9 494.2C476.6 494.2 489.4 507.7 489.4 524.2C489.4 540.8 476.6 554.3 460.8 554.3C445.1 554.3 432.2 540.8 432.2 524.3C432.3 507.7 445.1 494.2 460.9 494.2Z" fill="white"/>
</g>
<defs>
<clipPath id="clip0_3_527">
<rect width="1024" height="1024" fill="white"/>
</clipPath>
</defs>
</svg>
